packages/ffe-icons/icons/open/300/lg/stack_off.svg

<svg xmlns="http://www.w3.org/2000/svg" height="40" viewBox="0 -960 960 960" width="40"><path d="m859.999-199.694-50.255-50.255v-307.486q0-5-3.654-8.655-3.655-3.654-8.655-3.654H489.949l-50.255-50.255h357.741q25.609 0 44.086 18.478 18.478 18.477 18.478 44.086v357.741Zm-610.05-610.05-50.255-50.255h357.741q25.609 0 44.086 18.478 18.478 18.477 18.478 44.086v99.487h-50.255v-99.487q0-5-3.654-8.655-3.655-3.654-8.655-3.654H249.949Zm399.897 399.898Zm-247.281 259.59h335.181l-347.49-347.49v335.181q0 5.385 3.462 8.847 3.462 3.462 8.847 3.462Zm0 50.255q-26.346 0-44.455-18.109-18.109-18.109-18.109-44.455v-385.436L150.256-737.746v347.49h111.796v50.255h-99.487q-26.346 0-44.455-18.109-18.109-18.109-18.109-44.455v-385.436l-18.122-18.258q-7.62-7.554-7.505-17.891.115-10.336 7.998-18.157 7.882-7.82 17.999-7.82 10.117 0 17.938 7.82l723.998 724.614q7.435 7.482 7.628 17.523.192 10.04-7.69 17.86-7.883 7.82-18 7.82t-17.998-7.845l-18.246-17.666H402.565Zm161.436-224Z"/></svg>

<svg xmlns="http://www.w3.org/2000/svg" viewBox="0 -960 960 960" width="32" height="32"><path d="m860-199.69-50.26-50.26v-307.48q0-5.01-3.65-8.66-3.65-3.65-8.66-3.65H489.95L439.69-620h357.74q25.61 0 44.09 18.48Q860-583.04 860-557.43v357.74ZM249.95-809.74 199.69-860h357.74q25.61 0 44.09 18.48Q620-823.04 620-797.43v99.48h-50.26v-99.48q0-5.01-3.65-8.66-3.65-3.65-8.66-3.65H249.95Zm399.9 399.89ZM402.57-150.26h335.18L390.26-497.75v335.18q0 5.39 3.46 8.85t8.85 3.46Zm0 50.26q-26.35 0-44.46-18.11T340-162.57V-548L150.26-737.75v347.49h111.79V-340h-99.48q-26.35 0-44.46-18.11T100-402.57V-788l-18.12-18.26q-7.62-7.55-7.51-17.89.12-10.34 8-18.16t18-7.82q10.12 0 17.94 7.82l724 724.62q7.43 7.48 7.62 17.52.2 10.04-7.69 17.86-7.88 7.82-17.99 7.82-10.12 0-18-7.85L788-100H402.57ZM564-324Z"/></svg>
